src/assets/desktop/p11.svg

<svg width="153" height="57" viewBox="0 0 153 57" fill="none" xmlns="http://www.w3.org/2000/svg">
<path d="M5.05127 0.515547L5.24414 0.370605C9.26785 5.20254 20.7309 18.3268 27.3231 18.3268C32.4153 18.3268 35.3475 10.6416 35.7466 9.53126L35.979 9.61203C35.979 9.61203 32.3216 19.8036 35.7589 22.4887C39.1392 25.129 53.3636 20.6716 54.5811 20.2876L54.6505 20.5185C54.6505 20.5185 38.3045 25.4719 37.2659 30.1931C36.5232 33.5675 40.7803 38.3323 41.9168 39.5547L41.7457 39.7189C41.7457 39.7189 36.7988 34.1925 33.117 35.7374C27.6421 38.0356 24.5118 54.1076 24.1328 56.3706L23.8913 56.3253C23.8913 56.3253 27.3261 38.2144 18.7231 34.1525C13.8903 31.8692 1.96177 34.7827 0.0693686 35.2544L0 35.0179C0 35.0179 16.6841 30.8507 16.6841 21.6901C16.6841 14.2756 5.05127 0.515547 5.05127 0.515547ZM101.237 24.7703C99.8931 23.8639 98.0549 23.4043 95.7744 23.4043C92.8447 23.4043 90.4107 24.4339 88.7069 26.3875V24.0945V23.8893H88.5034H83.7481H83.5442V24.0945V42.4878V42.693H83.7481H88.5034H88.7069V42.4878V32.5972C88.7069 28.5678 92.1524 27.492 94.1887 27.492C98.1148 27.492 98.5683 29.7915 98.5683 31.5214V42.4881V42.6933H98.7719H103.527H103.731V42.4881V29.9944C103.729 27.6441 102.891 25.8872 101.237 24.7703ZM119.112 38.9558L115.802 39.0225C114.42 39.0225 114.283 38.1379 114.283 35.9654V27.7715H119.042H119.246V27.5663V24.0961V23.8909H119.042H114.283V18.4046V18.0493L113.978 18.2284L109.222 21.0051L109.12 21.0641V21.1817V23.8916H105.534H105.33V24.0968V27.5669V27.7721H105.534H109.12V37.3539C109.12 40.8322 109.568 43.1112 115.56 43.1112C117.07 43.1112 118.038 42.9952 119.241 42.8311L119.417 42.8063V42.6272V39.1574V38.9453L119.207 38.9522L119.112 38.9558ZM122.377 23.8899H122.173V24.0951V42.4884V42.6936H122.377H127.132H127.336V42.4884V24.0951V23.8899H127.132H122.377ZM122.377 17.0878H122.173V17.293V21.18V21.3852H122.377H127.132H127.336V21.18V17.293V17.0878H127.132H122.377ZM152.704 42.3546L144.586 33.0135L152.153 24.2303L152.446 23.8899H151.999H145.866H145.768L145.707 23.9665L141.078 29.7362L136.549 23.9678L136.488 23.8899H136.389H130.256H129.812L130.101 24.229L137.603 33.0135L129.517 42.3546L129.223 42.6936H129.671H135.804H135.9L135.962 42.6184L141.074 36.2921L146.051 42.6158L146.112 42.6936H146.211H152.551H153L152.704 42.3546ZM78.1522 17.0878H74.4922H72.2196H72.1259L72.0649 17.1601L50.7623 42.3555L50.4761 42.6933H50.9172H56.8496H56.9432L57.0045 42.621L62.1073 36.5846H74.2886V42.4868V42.692H74.4922H79.2475H79.4514V42.4868V17.2927V17.0875H79.2475L78.1522 17.0878ZM65.7699 32.2546L74.2886 22.1793V32.2546H65.7699Z" fill="white"/>
</svg>

<svg xmlns="http://www.w3.org/2000/svg" width="153" height="57" fill="none"><path fill="#fff" d="M5.051.516 5.244.37c4.024 4.832 15.487 17.956 22.08 17.956 5.091 0 8.023-7.685 8.423-8.796l.232.081s-3.657 10.192-.22 12.877c3.38 2.64 17.605-1.817 18.822-2.201l.07.23s-16.347 4.954-17.385 9.675c-.743 3.375 3.514 8.14 4.65 9.362l-.17.164s-4.947-5.526-8.629-3.982c-5.475 2.299-8.605 18.37-8.984 20.634l-.242-.046s3.435-18.11-5.168-22.172c-4.833-2.284-16.761.63-18.654 1.101L0 35.018S16.684 30.85 16.684 21.69C16.684 14.276 5.051.516 5.051.516m96.186 24.254c-1.344-.906-3.182-1.366-5.463-1.366-2.93 0-5.363 1.03-7.067 2.983V23.89h-5.163v18.804h5.163V32.598c0-4.03 3.445-5.106 5.482-5.106 3.926 0 4.38 2.3 4.38 4.03v11.171h5.162V29.994c-.002-2.35-.84-4.107-2.494-5.224m17.875 14.186-3.31.066c-1.382 0-1.519-.884-1.519-3.057v-8.194h4.963v-3.88h-4.963v-5.842l-.305.18-4.756 2.776-.102.06v2.827h-3.79v3.88h3.79v9.582c0 3.478.448 5.757 6.44 5.757 1.51 0 2.478-.116 3.681-.28l.176-.025v-3.861l-.21.007zm3.265-15.066h-.204v18.804h5.163V23.89zm0-6.802h-.204v4.297h5.163v-4.297zm30.327 25.267-8.118-9.341 7.567-8.784.293-.34h-6.678l-.061.076-4.629 5.77-4.529-5.768-.061-.078h-6.676l.289.339 7.502 8.785-8.086 9.34-.294.34h6.677l.062-.076 5.112-6.326 4.977 6.324.061.078H153zM78.152 17.088h-6.026l-.061.072-21.303 25.196-.286.337h6.467l.062-.072 5.102-6.036H74.29v6.107h5.162V17.087h-1.299M65.77 32.255l8.519-10.076v10.076z"/></svg>
